X: 348
T: Naiwawa diao
L: 1/8
M: 2/4
K: F
z F F F [I:setbarnb 1]| 
F D d c- | 
c d c/ d/ c/ A/ | 
cG3 | 
z c G A/ G/ | 
D> C G3/ G/ | 
A G/ A/ G D/ F/ | 
C4 | 
G G E F | 
G Gc2 | 
d d/ d/ c/ d/ c/ A/ | 
c G G C- | 
C A c c/ d/ | 
f f/ A< G A/ | 
c/ c/ c/ F/ G A/ G/ | 
F> DC2 |]

@@@ Tune index: 9222
